X:0255
M:2/4
L:1/8
Q:1/4=88
K:G
gg/a/ bg|fafd        |ee/f/ ge      |dgBG |\
cc/d/ ec|B/A/B/d/ g>e|d>e   d/c/B/A/|G2G2:|

